X:310
T: Jim Coleman's Hornpipe
S: "Music from Ireland 2" (Bulmer & Sharpley)
Z: B.Black
R: hornpipe
M: 4/4
L: 1/8
K: G
BA|(3GAG (3FGF E2 BA|(3GAG (3FGF EGAG|\
(3FGF (3EFE DFAG|(3FGF (3EFE D2 BA|
GBFB E2 BA|GBFB E3 B,|E2 EF GFGA|1 BGFB E2 :|2\
Beed e2||
Bd|g2 ga bgfa|(3efe (3def e2 dc|(3BcB GB AcFA|\
G2 dB GFED|
g2 ga bgfa|(3efe (3def e2 dc|(3Bcd gd (3AcA FA|\
G2 (3AGF G2 :|
